dist/img/references/bestseller.svg

<svg width="389" height="40" viewBox="0 0 389 40" fill="none" xmlns="http://www.w3.org/2000/svg">
<g clip-path="url(#clip0_4022_968)">
<path d="M174.621 29.2117C174.528 34.745 170.541 40 162.813 40C156.29 40 150.835 35.1932 150.525 29.0263C151.669 29.0263 156.569 29.0263 157.45 29.0263C157.604 32.0865 159.753 33.9258 163.493 33.7558C166.831 33.6012 168.392 30.7573 168.439 28.5626C168.501 25.9351 168.037 23.5703 160.649 20.9892C154.343 18.779 151.298 16.1051 151.298 9.98453C151.298 3.86398 157.032 0.0772674 162.009 -1.23912e-05C170.263 -0.139116 174.08 5.17773 173.972 9.62905H167.187C166.986 7.34156 164.714 5.73415 162.303 5.73415C159.892 5.73415 157.419 7.37248 157.419 10.5873C157.419 14.0649 159.536 15.3323 164.606 17.1406C173.477 20.0154 174.745 24.1731 174.621 29.2117Z" fill="#231F20"/>
<path d="M100.201 29.2117C100.108 34.745 96.1204 40 88.3925 40C81.87 40 76.4141 35.1932 76.105 29.0263C77.2487 29.0263 82.1483 29.0263 83.0292 29.0263C83.1838 32.0865 85.3322 33.9258 89.0725 33.7558C92.411 33.6012 93.9566 30.7573 94.0184 28.5626C94.0803 25.9351 93.6166 23.5703 86.2286 20.9892C79.9226 18.779 76.8778 16.1051 76.8778 9.98453C76.8778 3.86398 82.6119 0.0772674 87.5887 -1.23912e-05C95.8422 -0.139116 99.6599 5.17773 99.5517 9.62905H92.7665C92.5656 7.34156 90.2935 5.73415 87.8979 5.73415C85.5022 5.73415 83.0138 7.37248 83.0138 10.5873C83.0138 14.0649 85.1313 15.3323 90.2008 17.1406C99.0725 20.0154 100.34 24.1731 100.216 29.2117H100.201Z" fill="#231F20"/>
<path d="M384.374 4.03404H384.73C385.147 4.03404 385.472 3.89493 385.472 3.57036C385.472 3.27669 385.271 3.07577 384.791 3.07577C384.606 3.07577 384.467 3.09122 384.39 3.12213V4.03404H384.374ZM384.343 5.82693H383.601L383.632 2.643C383.926 2.58118 384.343 2.53481 384.853 2.53481C385.456 2.53481 385.719 2.643 385.966 2.79756C386.136 2.93666 386.275 3.19941 386.275 3.47762C386.275 3.84856 385.997 4.12677 385.611 4.23496V4.26588C385.92 4.37407 386.09 4.62136 386.182 5.05413C386.275 5.54872 386.337 5.73419 386.414 5.84238H385.611C385.518 5.71873 385.456 5.44053 385.363 5.06958C385.302 4.7141 385.116 4.55954 384.699 4.55954H384.343V5.82693ZM384.853 1.62291C383.447 1.62291 382.38 2.75119 382.38 4.15768C382.38 5.57963 383.416 6.72337 384.853 6.73883C386.26 6.76974 387.295 5.626 387.311 4.20405C387.311 2.79756 386.291 1.63836 384.869 1.63836H384.853V1.62291ZM384.915 0.973758C386.739 0.989214 388.161 2.42662 388.145 4.20405C388.145 6.0124 386.693 7.41889 384.838 7.40343C382.999 7.38798 381.546 5.98149 381.561 4.15768C381.577 2.38025 383.045 0.958302 384.884 0.973758H384.9H384.915Z" fill="#231F20"/>
<path d="M273.292 1.08203H267.388V38.7018H288.037V33.3077H273.57L273.292 33.0295V1.08203Z" fill="#231F20"/>
<path d="M237.666 1.08203H231.762V38.7018H252.411V33.3077L237.945 33.2922L237.666 33.0295V1.08203Z" fill="#231F20"/>
<path d="M122.767 6.76982L122.504 6.50707H112.458V1.08203H138.98V6.50707H128.949L128.686 6.76982L128.671 38.7018H122.767V6.76982Z" fill="#231F20"/>
<path d="M325.039 1.09741H304.42V38.7017H325.039V33.3076H310.572L310.309 33.0294V22.473L310.572 22.1948H322.612V16.7079H310.572L310.309 16.4452V6.7852L310.572 6.507H325.039V1.09741Z" fill="#231F20"/>
<path d="M212.427 1.09741H191.809V38.7017H212.427V33.3076H197.976L197.713 33.0294V22.473L197.976 22.1948H210.016V16.7079H197.976L197.713 16.4452V6.7852L197.976 6.507H212.427V1.09741Z" fill="#231F20"/>
<path d="M60.8966 1.09741H40.2783V38.7172H60.8966V33.3076H46.4298L46.167 33.0449V22.473L46.4298 22.2102H58.47V16.7234H46.4298L46.167 16.4606V6.7852L46.4298 6.52245H60.8966V1.09741Z" fill="#231F20"/>
<path d="M353.091 1.09741C350.804 1.09741 345.1 1.09741 344.003 1.3138V38.7017H349.923C349.923 38.1762 349.923 22.7512 349.923 22.7512L350.201 22.4884H353.076C355.749 22.4884 356.708 24.2504 357.898 26.847C359.521 30.4019 360.247 33.5549 361.762 38.7017H368.191C367.589 36.7234 365.409 30.1391 363.508 25.0387C362.38 22.0248 360.943 20.371 359.227 19.9537V19.7837C362.334 18.5626 365.719 16.3988 365.873 10.8656C365.95 8.05259 365.348 5.56418 363.555 3.83312C361.329 1.71565 357.79 1.11287 353.091 1.11287M350.185 16.7234L349.907 16.4452V6.7852L350.185 6.507H353.957C358.331 6.507 359.861 9.27361 359.861 11.4838C359.861 15.8733 356.97 16.7697 353.972 16.7079H350.185V16.7234Z" fill="#231F20"/>
<path d="M9.52087 1.09741C9.39722 1.09741 9.27357 1.09741 9.14992 1.09741C6.89335 1.11287 1.08192 1.09741 0 1.29834V38.6399C1.17465 38.8563 6.97063 38.9027 9.42813 38.9027C15.456 38.9027 17.6816 38.2226 20.0773 36.0897C22.0093 34.3586 22.9521 31.7157 22.9521 28.4544C22.9521 22.8748 20.3555 20.3401 17.0325 19.1036V18.9336C19.5672 17.6044 21.4992 15.286 21.4992 10.5565C21.4992 7.57346 20.51 5.40962 18.7326 3.83312C16.5224 1.85475 13.5394 1.09741 9.52087 1.09741ZM6.18238 16.7234L5.90417 16.4452V6.7852L6.16692 6.50699C6.53787 6.50699 6.76971 6.50699 7.12519 6.50699C7.9289 6.50699 8.73261 6.50699 9.84544 6.50699C14.2813 6.50699 15.6569 8.73265 15.6569 11.3293C15.6569 14.5441 14.3586 16.7079 10.1236 16.7079C10.0309 16.7079 6.18238 16.7079 6.18238 16.7079V16.7234ZM7.77434 33.3076H6.16692L5.88872 33.0294V22.473L6.16692 22.1948H9.82998C13.9722 22.1948 16.8006 24.1886 16.8006 27.9908C16.8006 30.9738 15.4405 33.3076 10.1546 33.3231C9.24266 33.3231 8.43895 33.3076 7.77434 33.3076Z" fill="#231F20"/>
</g>
<defs>
<clipPath id="clip0_4022_968">
<rect width="388.145" height="40" fill="white"/>
</clipPath>
</defs>
</svg>

<svg width="389" height="40" viewBox="0 0 389 40" fill="none" xmlns="http://www.w3.org/2000/svg"><g clip-path="url(#clip0_4022_968)" fill="#231F20"><path d="M174.621 29.212C174.528 34.745 170.541 40 162.813 40c-6.523 0-11.978-4.807-12.288-10.974h6.925c.154 3.06 2.303 4.9 6.043 4.73 3.338-.155 4.899-2.999 4.946-5.193.062-2.628-.402-4.993-7.79-7.574-6.306-2.21-9.351-4.884-9.351-11.004 0-6.121 5.734-9.908 10.711-9.985 8.254-.14 12.071 5.178 11.963 9.629h-6.785c-.201-2.287-2.473-3.895-4.884-3.895-2.411 0-4.884 1.638-4.884 4.853 0 3.478 2.117 4.745 7.187 6.554 8.871 2.874 10.139 7.032 10.015 12.07zm-74.42 0C100.108 34.745 96.121 40 88.393 40c-6.523 0-11.979-4.807-12.288-10.974h6.924c.155 3.06 2.303 4.9 6.044 4.73 3.338-.155 4.884-2.999 4.945-5.193.062-2.628-.401-4.993-7.79-7.574-6.305-2.21-9.35-4.884-9.35-11.004 0-6.121 5.734-9.908 10.71-9.985 8.254-.14 12.072 5.178 11.964 9.629h-6.786c-.2-2.287-2.473-3.895-4.868-3.895-2.396 0-4.884 1.638-4.884 4.853 0 3.478 2.117 4.745 7.187 6.554 8.872 2.874 10.139 7.032 10.015 12.07h-.015zM384.374 4.034h.356c.417 0 .742-.14.742-.464 0-.293-.201-.494-.681-.494-.185 0-.324.015-.401.046v.912h-.016zm-.031 1.793h-.742l.031-3.184a6.124 6.124 0 011.221-.108c.603 0 .866.108 1.113.263.17.139.309.401.309.68 0 .37-.278.649-.664.757v.03c.309.11.479.356.571.79.093.494.155.68.232.787h-.803c-.093-.123-.155-.401-.248-.772-.061-.356-.247-.51-.664-.51h-.356v1.267zm.51-4.204c-1.406 0-2.473 1.128-2.473 2.535 0 1.422 1.036 2.565 2.473 2.58 1.407.032 2.442-1.112 2.458-2.534 0-1.406-1.02-2.566-2.442-2.566h-.016v-.015zm.062-.65c1.824.016 3.246 1.454 3.23 3.231 0 1.808-1.452 3.215-3.307 3.2-1.839-.016-3.292-1.423-3.277-3.246.016-1.778 1.484-3.2 3.323-3.184h.031zm-111.623.109h-5.904v37.62h20.649v-5.394H273.57l-.278-.279V1.082zm-35.626 0h-5.904v37.62h20.649v-5.394l-14.466-.016-.279-.263V1.082zM122.767 6.77l-.263-.263h-10.046V1.082h26.522v5.425h-10.031l-.263.263-.015 31.932h-5.904V6.77zm202.272-5.673H304.42v37.605h20.619v-5.394h-14.467l-.263-.279V22.473l.263-.278h12.04v-5.487h-12.04l-.263-.263v-9.66l.263-.278h14.467v-5.41zm-112.612 0h-20.618v37.605h20.618v-5.394h-14.451l-.263-.279V22.473l.263-.278h12.04v-5.487h-12.04l-.263-.263v-9.66l.263-.278h14.451v-5.41zm-151.53 0H40.278v37.62h20.619v-5.41H46.43l-.263-.262V22.473l.263-.263h12.04v-5.487H46.43l-.263-.262V6.785l.263-.263h14.467V1.097zm292.194 0c-2.287 0-7.991 0-9.088.217v37.388h5.92v-15.95l.278-.264h2.875c2.673 0 3.632 1.762 4.822 4.359 1.623 3.555 2.349 6.708 3.864 11.855h6.429c-.602-1.979-2.782-8.563-4.683-13.663-1.128-3.014-2.565-4.668-4.281-5.085v-.17c3.107-1.221 6.492-3.385 6.646-8.918.077-2.813-.525-5.302-2.318-7.033-2.226-2.117-5.765-2.72-10.464-2.72m-2.906 15.61l-.278-.278v-9.66l.278-.278h3.772c4.374 0 5.904 2.767 5.904 4.977 0 4.39-2.891 5.286-5.889 5.224h-3.787v.015zM9.52 1.097h-.37c-2.257.016-8.068 0-9.15.201V38.64c1.175.216 6.97.263 9.428.263 6.028 0 8.254-.68 10.65-2.813 1.931-1.731 2.874-4.374 2.874-7.636 0-5.58-2.597-8.114-5.92-9.35v-.17c2.535-1.33 4.467-3.648 4.467-8.378 0-2.983-.989-5.146-2.766-6.723-2.21-1.978-5.194-2.736-9.212-2.736zM6.183 16.723l-.278-.278v-9.66l.263-.278h3.678c4.436 0 5.812 2.226 5.812 4.822 0 3.215-1.298 5.379-5.533 5.379H6.182v.015zm1.592 16.585H6.167l-.278-.279V22.473l.278-.278H9.83c4.142 0 6.97 1.994 6.97 5.796 0 2.983-1.36 5.317-6.645 5.332-.912 0-1.716-.015-2.38-.015z"/></g><defs><clipPath id="clip0_4022_968"><rect width="388.145" height="40" fill="#fff"/></clipPath></defs></svg>
